src/icons/icons_set_02/016-bulle.svg

<svg height="50" viewBox="0 0 50 50" width="50" xmlns="http://www.w3.org/2000/svg"><path d="m45.4706771 35.0227275c.8339797 2.2778849.4763401 4.2720587-.573074 5.7581748-1.0690593 1.5059678-2.8144022 2.3849288-4.646776 2.3474637-.8831693-.0118116-1.7563351-.1887359-2.5500301-.511896l-3.9719634-1.5557581c-8.8786843 5.4107892-20.4083486 3.8948908-27.58305861-3.7641664-7.41975216-7.9206418-7.97972465-20.0602894-1.32064874-28.6303532 6.65907595-8.57006383 18.56070735-11.02684699 28.06901155-5.79411952 9.2912206 5.11325928 13.6023675 16.08589342 10.3636224 26.11196392l1.7298735 4.7262954zm-6.4617684-6.0095725.2459895-.6831483c3.0105032-8.3605985-.504282-17.6691987-8.2893295-21.95356221-7.7850476-4.28436357-17.5296629-2.27284046-22.98186774 4.74401061-5.45220489 7.016851-4.99372013 16.9563452 1.08129831 23.4414734 6.07501843 6.4851282 15.96343283 7.5910272 23.32100603 2.6081713l.8711952-.5900098.9797127.3837387 4.9471229 1.9378989c.3560041.1448666.7359669.2218562 1.1343667.2272341.5219387.0106575 1.0152952-.2377986 1.3146062-.6594229.3078292-.4359319.4263815-1.031347.1327301-1.9242751zm-6.7590158-6.7675665c.0054535.8976135-.5310586 1.709879-1.3587854 2.0571662-.8277265.3472871-1.7831952.1610082-2.4198467-.4717753-.6366513-.6327835-.8287492-1.5870993-.4865125-2.4169269.3422367-.8298277 1.1512178-1.3712795 2.0488479-1.3712961 1.2187879-.0000225 2.2088922.9840667 2.2162967 2.2028321zm-8.1677134 0c.0074136 1.2239938-.9788116 2.2222509-2.2028053 2.2296795-1.2239937.0074287-2.222263-.9787842-2.2297067-2.2027778-.0074437-1.2239937.9787569-2.222275 2.2027504-2.2297338.5878018-.0035819 1.1529504.2264918 1.5711142.6396052.4181638.4131135.6550871.975425.6586474 1.5632269zm-8.1973359 0c.0054542.8978585-.531349 1.7102955-1.3594073 2.0574254-.8280583.34713-1.7837399.160357-2.4201801-.4729861-.6364402-.6333432-.8278728-1.5881024-.4847862-2.4178441.3430865-.8297417 1.1528953-1.3705017 2.0507697-1.3694273 1.2183454-.0000144 2.2076752.9845012 2.2136039 2.2028321z" transform="translate(1.995 2.802885)"/></svg>

<?xml version="1.0" encoding="UTF-8"?>
<svg width="50px" height="50px" viewBox="0 0 50 50" version="1.1" xmlns="http://www.w3.org/2000/svg" xmlns:xlink="http://www.w3.org/1999/xlink">
    <!-- Generator: Sketch 52.4 (67378) - http://www.bohemiancoding.com/sketch -->
    <title>016-bulle</title>
    <desc>Created with Sketch.</desc>
    <g id="016-bulle" stroke="none" stroke-width="1" fill="none" fill-rule="evenodd">
        <g id="Group" transform="translate(1.995000, 2.802885)" fill="#000000" fill-rule="nonzero">
            <g id="015-bulle-02">
                <g id="ICONSET-01">
                    <g id="015-bulle-02">
                        <path d="M45.4706771,35.0227275 C46.3046568,37.3006124 45.9470172,39.2947862 44.8976031,40.7809023 C43.8285438,42.2868701 42.0832009,43.1658311 40.2508271,43.128366 C39.3676578,43.1165544 38.494492,42.9396301 37.700797,42.61647 L33.7288336,41.0607119 C24.8501493,46.4715011 13.320485,44.9556027 6.14577499,37.2965455 C-1.27397717,29.3759037 -1.83394966,17.2362561 4.82512625,8.6661923 C11.4842022,0.0961284657 23.3858336,-2.36065469 32.8941378,2.87207278 C42.1853584,7.98533206 46.4965053,18.9579662 43.2577602,28.9840367 L44.9876337,33.7103321 L45.4706771,35.0227275 Z M39.0089087,29.013155 L39.2548982,28.3300067 C42.2654014,19.9694082 38.7506162,10.660808 30.9655687,6.37644449 C23.1805211,2.09208092 13.4359058,4.10360403 7.98370096,11.1204551 C2.53149607,18.1373061 2.98998083,28.0768003 9.06499927,34.5619285 C15.1400177,41.0470567 25.0284321,42.1529557 32.3860053,37.1700998 L33.2572005,36.58009 L34.2369132,36.9638287 L39.1840361,38.9017276 C39.5400402,39.0465942 39.920003,39.1235838 40.3184028,39.1289617 C40.8403415,39.1396192 41.333698,38.8911631 41.633009,38.4695388 C41.9408382,38.0336069 42.0593905,37.4381918 41.7657391,36.5452637 L39.0089087,29.013155 Z M32.2498929,22.2455885 C32.2553464,23.143202 31.7188343,23.9554675 30.8911075,24.3027547 C30.063381,24.6500418 29.1079123,24.4637629 28.4712608,23.8309794 C27.8346095,23.1981959 27.6425116,22.2438801 27.9847483,21.4140525 C28.326985,20.5842248 29.1359661,20.042773 30.0335962,20.0427564 C31.2523841,20.0427339 32.2424884,21.0268231 32.2498929,22.2455885 Z M24.0821795,22.2455885 C24.0895931,23.4695823 23.1033679,24.4678394 21.8793742,24.475268 C20.6553805,24.4826967 19.6571112,23.4964838 19.6496675,22.2724902 C19.6422238,21.0484965 20.6284244,20.0502152 21.8524179,20.0427564 C22.4402197,20.0391745 23.0053683,20.2692482 23.4235321,20.6823616 C23.8416959,21.0954751 24.0786192,21.6577866 24.0821795,22.2455885 Z M15.8848436,22.2455885 C15.8902978,23.143447 15.3534946,23.955884 14.5254363,24.3030139 C13.697378,24.6501439 12.7416964,24.4633709 12.1052562,23.8300278 C11.468816,23.1966846 11.2773834,22.2419254 11.62047,21.4121837 C11.9635565,20.582442 12.7733653,20.041682 13.6712397,20.0427564 C14.8895851,20.042742 15.8789149,21.0272576 15.8848436,22.2455885 Z" id="Combined-Shape"></path>
                    </g>
                </g>
            </g>
        </g>
    </g>
</svg>
